src/pos-icons/map-clock.svg

<svg height="24" viewBox="0 0 24 24" width="24" xmlns="http://www.w3.org/2000/svg"><path d="m15 12h1.5v4.25l2.86 1.69-.75 1.22-3.61-2.16zm8 4a7 7 0 0 1 -7 7c-3 0-5.6-1.92-6.58-4.6l-1.42-.5-5.34 2.07-.16.03a.5.5 0 0 1 -.5-.5v-15.12c0-.23.15-.41.36-.48l5.64-1.9 6 2.1 5.34-2.1h.16a.5.5 0 0 1 .5.5v7.75c1.81 1.25 3 3.37 3 5.75m-14 0c0-3.17 2.11-5.85 5-6.71v-3.18l-6-2.11v11.89l1 .35c0-.08 0-.16 0-.24m7-5a5 5 0 0 0 -5 5 5 5 0 0 0 5 5 5 5 0 0 0 5-5 5 5 0 0 0 -5-5z"/></svg>

<?xml version="1.0" encoding="UTF-8"?><!DOCTYPE svg PUBLIC "-//W3C//DTD SVG 1.1//EN" "http://www.w3.org/Graphics/SVG/1.1/DTD/svg11.dtd"><svg xmlns="http://www.w3.org/2000/svg" xmlns:xlink="http://www.w3.org/1999/xlink" version="1.1" id="mdi-map-clock" width="24" height="24" viewBox="0 0 24 24"><path d="M15,12H16.5V16.25L19.36,17.94L18.61,19.16L15,17V12M23,16A7,7 0 0,1 16,23C13,23 10.4,21.08 9.42,18.4L8,17.9L2.66,19.97L2.5,20A0.5,0.5 0 0,1 2,19.5V4.38C2,4.15 2.15,3.97 2.36,3.9L8,2L14,4.1L19.34,2H19.5A0.5,0.5 0 0,1 20,2.5V10.25C21.81,11.5 23,13.62 23,16M9,16C9,12.83 11.11,10.15 14,9.29V6.11L8,4V15.89L9,16.24C9,16.16 9,16.08 9,16M16,11A5,5 0 0,0 11,16A5,5 0 0,0 16,21A5,5 0 0,0 21,16A5,5 0 0,0 16,11Z" /></svg>
